!!!SOCIAL_FUNCTION:	social songs
!!!PDT:	1943
!!!OTL: No_55_Social_Song_(a).krn
!!!REG: British Columbia
**kern
*staff1
=1-
*clefF4
*k[f#c#g#d#a#]
*M3/4
4.r
16F#\LL
16G#\JJ
8.G#\L
16F#\Jk
=2
[2G#\
8G#\L]
8A#\J
=3||
*M2/4
8G#\L
8F#\J
4E\
=4
8F#\L
8G#\J
8.G#\L
16F#\Jk
=5||
*M3/4
[2F#\
8F#\L]
8G#\J
=6||
*M2/4
8F#\L
8E\J
4C#/
=7
8E\L
8F#\J
4E\
=8||
*M3/4
8C#/L
8C#/J
8C#/L
8C#/J
8C#/L
8E/J
=9||
*M2/4
8C#/L
8BB/J
4GG#/
=10
8BB/L
8C#/J
4BB/
=11
8GG#/L
8GG#/J
8GG#/L
8GG#/J
=12||
*M3/4
2GG#/
4r
=13||
*M2/4
8.F#\L
16E\Jk
8.E/L
16C#/Jk
=14||
*M3/4
2C#/
12C#/L
24BB/Jk
24r
12E\
=15||
*M2/4
8C#/L
8BB/J
4GG#/
=16
8BB/L
8C#/J
4BB/
=17
8GG#/L
8GG#/J
8GG#/L
8GG#/J
=18
2GG#/
==
*-
